remix/Map/rocket-fill.svg

<svg viewBox="0 0 24 24" fill="currentColor" xmlns="http://www.w3.org/2000/svg"><path d="M5.33053 15.9288C5.115 14.9914 5.00054 14.0103 5.00054 12.9999C5.00054 7.91198 7.90319 3.5636 12.0005 1.81799C16.0979 3.5636 19.0005 7.91198 19.0005 12.9999C19.0005 14.0103 18.8861 14.9914 18.6706 15.9288L20.6907 17.7245C20.8704 17.8842 20.9109 18.1493 20.7872 18.3555L18.33 22.4508C18.1879 22.6876 17.8808 22.7644 17.644 22.6223C17.609 22.6013 17.5766 22.576 17.5477 22.5471L15.2934 20.2928C15.1059 20.1053 14.8515 19.9999 14.5863 19.9999H9.41476C9.14954 19.9999 8.89519 20.1053 8.70765 20.2928L6.45337 22.5471C6.2581 22.7424 5.94152 22.7424 5.74626 22.5471C5.71735 22.5182 5.6921 22.4859 5.67107 22.4508L3.21385 18.3555C3.09014 18.1493 3.13071 17.8842 3.31042 17.7245L5.33053 15.9288ZM12.0005 12.9999C13.1051 12.9999 14.0005 12.1045 14.0005 10.9999C14.0005 9.89537 13.1051 8.99994 12.0005 8.99994C10.896 8.99994 10.0005 9.89537 10.0005 10.9999C10.0005 12.1045 10.896 12.9999 12.0005 12.9999Z"/></svg>

<svg viewBox="0 0 24 24" xmlns="http://www.w3.org/2000/svg"><path fill="none" d="M0 0h24v24H0Z"/><path d="M5.33 15.929l0 0c-.23-.97-.34-1.95-.33-2.93C5 7.91 7.9 3.56 12 1.81c4.09 1.74 7 6.09 7 11.18 0 1.01-.12 1.99-.33 2.92l2.02 1.79v0c.17.15.22.42.09.63l-2.46 4.096v0c-.15.23-.45.31-.69.17 -.04-.03-.07-.05-.1-.08l-2.26-2.26v0c-.19-.19-.45-.3-.71-.3H9.38v0c-.27 0-.52.1-.71.29L6.41 22.5h0c-.2.19-.52.19-.71-.01 -.03-.03-.06-.07-.08-.1l-2.458-4.1h0c-.13-.21-.09-.48.09-.64l2.02-1.8Zm6.67-2.93v0c1.1 0 2-.9 2-2 0-1.11-.9-2-2-2v0c-1.11 0-2 .89-2 2 0 1.1.89 2 2 2Z"/></svg>
